images/6605093.svg

<?xml version="1.0" encoding="UTF-8"?>
<svg xmlns="http://www.w3.org/2000/svg" xmlns:xlink="http://www.w3.org/1999/xlink" width="300pt" height="300pt" viewBox="0 0 300 300" version="1.1">
<defs>
<g>
<symbol overflow="visible" id="glyph0-0">
<path style="stroke:none;" d="M 0.453125 1.59375 L 0.453125 -6.34375 L 4.953125 -6.34375 L 4.953125 1.59375 Z M 0.953125 1.09375 L 4.453125 1.09375 L 4.453125 -5.84375 L 0.953125 -5.84375 Z M 0.953125 1.09375 "/>
</symbol>
<symbol overflow="visible" id="glyph0-1">
<path style="stroke:none;" d="M 0.890625 -6.5625 L 2.078125 -6.5625 L 4.984375 -1.078125 L 4.984375 -6.5625 L 5.84375 -6.5625 L 5.84375 0 L 4.65625 0 L 1.75 -5.484375 L 1.75 0 L 0.890625 0 Z M 0.890625 -6.5625 "/>
</symbol>
<symbol overflow="visible" id="glyph0-2">
<path style="stroke:none;" d="M 0.890625 -6.5625 L 1.765625 -6.5625 L 1.765625 -3.875 L 5 -3.875 L 5 -6.5625 L 5.890625 -6.5625 L 5.890625 0 L 5 0 L 5 -3.125 L 1.765625 -3.125 L 1.765625 0 L 0.890625 0 Z M 0.890625 -6.5625 "/>
</symbol>
<symbol overflow="visible" id="glyph0-3">
<path style="stroke:none;" d="M 3.546875 -5.953125 C 2.898438 -5.953125 2.382812 -5.710938 2 -5.234375 C 1.625 -4.753906 1.4375 -4.101562 1.4375 -3.28125 C 1.4375 -2.445312 1.625 -1.789062 2 -1.3125 C 2.382812 -0.832031 2.898438 -0.59375 3.546875 -0.59375 C 4.191406 -0.59375 4.703125 -0.832031 5.078125 -1.3125 C 5.453125 -1.789062 5.640625 -2.445312 5.640625 -3.28125 C 5.640625 -4.101562 5.453125 -4.753906 5.078125 -5.234375 C 4.703125 -5.710938 4.191406 -5.953125 3.546875 -5.953125 Z M 3.546875 -6.6875 C 4.460938 -6.6875 5.195312 -6.375 5.75 -5.75 C 6.300781 -5.132812 6.578125 -4.3125 6.578125 -3.28125 C 6.578125 -2.238281 6.300781 -1.410156 5.75 -0.796875 C 5.195312 -0.179688 4.460938 0.125 3.546875 0.125 C 2.617188 0.125 1.878906 -0.179688 1.328125 -0.796875 C 0.773438 -1.410156 0.5 -2.238281 0.5 -3.28125 C 0.5 -4.3125 0.773438 -5.132812 1.328125 -5.75 C 1.878906 -6.375 2.617188 -6.6875 3.546875 -6.6875 Z M 3.546875 -6.6875 "/>
</symbol>
</g>
</defs>
<g id="surface32869">
<rect x="0" y="0" width="300" height="300" style="fill:rgb(100%,100%,100%);fill-opacity:1;stroke:none;"/>
<path style="fill:none;stroke-width:1.2;stroke-linecap:butt;stroke-linejoin:miter;stroke:rgb(0%,0%,0%);stroke-opacity:1;stroke-miterlimit:10;" d="M 159.351562 225.277344 L 162.527344 202.773438 "/>
<path style="fill:none;stroke-width:1.2;stroke-linecap:butt;stroke-linejoin:miter;stroke:rgb(0%,0%,0%);stroke-opacity:1;stroke-miterlimit:10;" d="M 162.527344 202.773438 L 153.578125 195.769531 "/>
<path style="fill:none;stroke-width:1.2;stroke-linecap:butt;stroke-linejoin:miter;stroke:rgb(0%,0%,100%);stroke-opacity:1;stroke-miterlimit:10;" d="M 153.578125 195.769531 L 144.628906 188.765625 "/>
<path style="fill:none;stroke-width:1.2;stroke-linecap:butt;stroke-linejoin:miter;stroke:rgb(0%,0%,0%);stroke-opacity:1;stroke-miterlimit:10;" d="M 164.035156 197.160156 L 156.875 191.558594 "/>
<path style="fill:none;stroke-width:1.2;stroke-linecap:butt;stroke-linejoin:miter;stroke:rgb(0%,0%,100%);stroke-opacity:1;stroke-miterlimit:10;" d="M 156.875 191.558594 L 149.714844 185.953125 "/>
<path style="fill:none;stroke-width:1.2;stroke-linecap:butt;stroke-linejoin:miter;stroke:rgb(0%,0%,100%);stroke-opacity:1;stroke-miterlimit:10;" d="M 183.609375 194.269531 L 173.070312 198.523438 "/>
<path style="fill:none;stroke-width:1.2;stroke-linecap:butt;stroke-linejoin:miter;stroke:rgb(0%,0%,0%);stroke-opacity:1;stroke-miterlimit:10;" d="M 173.070312 198.523438 L 162.527344 202.773438 "/>
<path style="fill:none;stroke-width:1.2;stroke-linecap:butt;stroke-linejoin:miter;stroke:rgb(0%,0%,100%);stroke-opacity:1;stroke-miterlimit:10;" d="M 144.628906 188.765625 L 146.214844 177.511719 "/>
<path style="fill:none;stroke-width:1.2;stroke-linecap:butt;stroke-linejoin:miter;stroke:rgb(0%,0%,0%);stroke-opacity:1;stroke-miterlimit:10;" d="M 146.214844 177.511719 L 147.804688 166.261719 "/>
<path style=" stroke:none;fill-rule:nonzero;fill:rgb(100%,100%,100%);fill-opacity:1;" d="M 141.628906 183.265625 L 148.628906 183.265625 L 148.628906 194.265625 L 141.628906 194.265625 Z M 141.628906 183.265625 "/>
<g style="fill:rgb(0%,0%,100%);fill-opacity:1;">
  <use xlink:href="#glyph0-1" x="141.628906" y="191.928711"/>
</g>
<path style="fill:none;stroke-width:1.2;stroke-linecap:butt;stroke-linejoin:miter;stroke:rgb(0%,0%,0%);stroke-opacity:1;stroke-miterlimit:10;" d="M 147.804688 166.261719 L 168.886719 157.761719 "/>
<path style="fill:none;stroke-width:1.2;stroke-linecap:butt;stroke-linejoin:miter;stroke:rgb(0%,0%,0%);stroke-opacity:1;stroke-miterlimit:10;" d="M 147.914062 160.449219 L 164.777344 153.648438 "/>
<path style="fill:none;stroke-width:1.2;stroke-linecap:butt;stroke-linejoin:miter;stroke:rgb(0%,0%,100%);stroke-opacity:1;stroke-miterlimit:10;" d="M 133.207031 148.839844 L 140.507812 157.550781 "/>
<path style="fill:none;stroke-width:1.2;stroke-linecap:butt;stroke-linejoin:miter;stroke:rgb(0%,0%,0%);stroke-opacity:1;stroke-miterlimit:10;" d="M 140.507812 157.550781 L 147.804688 166.261719 "/>
<path style="fill:none;stroke-width:1.2;stroke-linecap:butt;stroke-linejoin:miter;stroke:rgb(0%,0%,0%);stroke-opacity:1;stroke-miterlimit:10;" d="M 168.886719 157.761719 L 186.789062 171.765625 "/>
<path style="fill:none;stroke-width:1.2;stroke-linecap:butt;stroke-linejoin:miter;stroke:rgb(0%,0%,0%);stroke-opacity:1;stroke-miterlimit:10;" d="M 168.886719 157.761719 L 168.101562 146.421875 "/>
<path style="fill:none;stroke-width:1.2;stroke-linecap:butt;stroke-linejoin:miter;stroke:rgb(0%,0%,100%);stroke-opacity:1;stroke-miterlimit:10;" d="M 168.101562 146.421875 L 167.316406 135.085938 "/>
<path style="fill:none;stroke-width:1.2;stroke-linecap:butt;stroke-linejoin:miter;stroke:rgb(0%,0%,0%);stroke-opacity:1;stroke-miterlimit:10;" d="M 186.789062 171.765625 L 185.199219 183.019531 "/>
<path style="fill:none;stroke-width:1.2;stroke-linecap:butt;stroke-linejoin:miter;stroke:rgb(0%,0%,100%);stroke-opacity:1;stroke-miterlimit:10;" d="M 185.199219 183.019531 L 183.609375 194.269531 "/>
<path style="fill:none;stroke-width:1.2;stroke-linecap:butt;stroke-linejoin:miter;stroke:rgb(0%,0%,0%);stroke-opacity:1;stroke-miterlimit:10;" d="M 181.175781 173.269531 L 179.902344 182.269531 "/>
<path style="fill:none;stroke-width:1.2;stroke-linecap:butt;stroke-linejoin:miter;stroke:rgb(0%,0%,100%);stroke-opacity:1;stroke-miterlimit:10;" d="M 179.902344 182.269531 L 178.632812 191.273438 "/>
<path style="fill:none;stroke-width:1.2;stroke-linecap:butt;stroke-linejoin:miter;stroke:rgb(0%,0%,0%);stroke-opacity:1;stroke-miterlimit:10;" d="M 186.789062 171.765625 L 197.328125 167.515625 "/>
<path style="fill:none;stroke-width:1.2;stroke-linecap:butt;stroke-linejoin:miter;stroke:rgb(0%,0%,100%);stroke-opacity:1;stroke-miterlimit:10;" d="M 197.328125 167.515625 L 207.867188 163.265625 "/>
<path style=" stroke:none;fill-rule:nonzero;fill:rgb(100%,100%,100%);fill-opacity:1;" d="M 180.609375 188.769531 L 187.609375 188.769531 L 187.609375 199.769531 L 180.609375 199.769531 Z M 180.609375 188.769531 "/>
<g style="fill:rgb(0%,0%,100%);fill-opacity:1;">
  <use xlink:href="#glyph0-1" x="180.609375" y="197.432617"/>
</g>
<path style="fill:none;stroke-width:1.2;stroke-linecap:butt;stroke-linejoin:miter;stroke:rgb(0%,0%,100%);stroke-opacity:1;stroke-miterlimit:10;" d="M 207.867188 163.265625 L 216.816406 170.269531 "/>
<path style="fill:none;stroke-width:1.2;stroke-linecap:butt;stroke-linejoin:miter;stroke:rgb(0%,0%,0%);stroke-opacity:1;stroke-miterlimit:10;" d="M 216.816406 170.269531 L 225.769531 177.269531 "/>
<path style=" stroke:none;fill-rule:nonzero;fill:rgb(100%,100%,100%);fill-opacity:1;" d="M 200.867188 157.765625 L 214.867188 157.765625 L 214.867188 168.765625 L 200.867188 168.765625 Z M 200.867188 157.765625 "/>
<g style="fill:rgb(0%,0%,100%);fill-opacity:1;">
  <use xlink:href="#glyph0-1" x="200.867188" y="166.428711"/>
  <use xlink:href="#glyph0-2" x="207.844727" y="166.428711"/>
</g>
<path style="fill:none;stroke-width:1.2;stroke-linecap:butt;stroke-linejoin:miter;stroke:rgb(0%,0%,0%);stroke-opacity:1;stroke-miterlimit:10;" d="M 225.769531 177.269531 L 222.589844 199.777344 "/>
<path style="fill:none;stroke-width:1.2;stroke-linecap:butt;stroke-linejoin:miter;stroke:rgb(0%,0%,0%);stroke-opacity:1;stroke-miterlimit:10;" d="M 246.847656 168.769531 L 225.769531 177.269531 "/>
<path style="fill:none;stroke-width:1.2;stroke-linecap:butt;stroke-linejoin:miter;stroke:rgb(0%,0%,0%);stroke-opacity:1;stroke-miterlimit:10;" d="M 222.589844 199.777344 L 240.492188 213.78125 "/>
<path style="fill:none;stroke-width:1.2;stroke-linecap:butt;stroke-linejoin:miter;stroke:rgb(0%,0%,0%);stroke-opacity:1;stroke-miterlimit:10;" d="M 240.492188 213.78125 L 261.570312 205.28125 "/>
<path style="fill:none;stroke-width:1.2;stroke-linecap:butt;stroke-linejoin:miter;stroke:rgb(0%,0%,0%);stroke-opacity:1;stroke-miterlimit:10;" d="M 261.570312 205.28125 L 264.75 182.777344 "/>
<path style="fill:none;stroke-width:1.2;stroke-linecap:butt;stroke-linejoin:miter;stroke:rgb(0%,0%,0%);stroke-opacity:1;stroke-miterlimit:10;" d="M 264.75 182.777344 L 246.847656 168.769531 "/>
<path style="fill:none;stroke-width:1.2;stroke-linecap:butt;stroke-linejoin:miter;stroke:rgb(0%,0%,100%);stroke-opacity:1;stroke-miterlimit:10;" d="M 167.316406 135.085938 L 156.289062 132.328125 "/>
<path style="fill:none;stroke-width:1.2;stroke-linecap:butt;stroke-linejoin:miter;stroke:rgb(0%,0%,0%);stroke-opacity:1;stroke-miterlimit:10;" d="M 156.289062 132.328125 L 145.265625 129.570312 "/>
<path style="fill:none;stroke-width:1.2;stroke-linecap:butt;stroke-linejoin:miter;stroke:rgb(0%,0%,100%);stroke-opacity:1;stroke-miterlimit:10;" d="M 163.8125 139.722656 L 154.992188 137.515625 "/>
<path style="fill:none;stroke-width:1.2;stroke-linecap:butt;stroke-linejoin:miter;stroke:rgb(0%,0%,0%);stroke-opacity:1;stroke-miterlimit:10;" d="M 154.992188 137.515625 L 146.171875 135.3125 "/>
<path style=" stroke:none;fill-rule:nonzero;fill:rgb(100%,100%,100%);fill-opacity:1;" d="M 164.316406 129.585938 L 171.316406 129.585938 L 171.316406 140.585938 L 164.316406 140.585938 Z M 164.316406 129.585938 "/>
<g style="fill:rgb(0%,0%,100%);fill-opacity:1;">
  <use xlink:href="#glyph0-1" x="164.316406" y="138.249023"/>
</g>
<path style="fill:none;stroke-width:1.2;stroke-linecap:butt;stroke-linejoin:miter;stroke:rgb(0%,0%,0%);stroke-opacity:1;stroke-miterlimit:10;" d="M 145.265625 129.570312 L 139.234375 139.207031 "/>
<path style="fill:none;stroke-width:1.2;stroke-linecap:butt;stroke-linejoin:miter;stroke:rgb(0%,0%,100%);stroke-opacity:1;stroke-miterlimit:10;" d="M 139.234375 139.207031 L 133.207031 148.839844 "/>
<path style="fill:none;stroke-width:1.2;stroke-linecap:butt;stroke-linejoin:miter;stroke:rgb(0%,0%,0%);stroke-opacity:1;stroke-miterlimit:10;" d="M 145.265625 129.570312 L 136.765625 108.492188 "/>
<path style="fill:none;stroke-width:1.2;stroke-linecap:butt;stroke-linejoin:miter;stroke:rgb(0%,0%,100%);stroke-opacity:1;stroke-miterlimit:10;" d="M 133.207031 148.839844 L 121.871094 149.625 "/>
<path style="fill:none;stroke-width:1.2;stroke-linecap:butt;stroke-linejoin:miter;stroke:rgb(0%,0%,0%);stroke-opacity:1;stroke-miterlimit:10;" d="M 121.871094 149.625 L 110.53125 150.410156 "/>
<path style=" stroke:none;fill-rule:nonzero;fill:rgb(100%,100%,100%);fill-opacity:1;" d="M 130.207031 143.339844 L 137.207031 143.339844 L 137.207031 154.339844 L 130.207031 154.339844 Z M 130.207031 143.339844 "/>
<g style="fill:rgb(0%,0%,100%);fill-opacity:1;">
  <use xlink:href="#glyph0-1" x="130.207031" y="152.00293"/>
</g>
<path style="fill:none;stroke-width:1.2;stroke-linecap:butt;stroke-linejoin:miter;stroke:rgb(0%,0%,0%);stroke-opacity:1;stroke-miterlimit:10;" d="M 110.53125 150.410156 L 100.554688 170.832031 "/>
<path style="fill:none;stroke-width:1.2;stroke-linecap:butt;stroke-linejoin:miter;stroke:rgb(0%,0%,0%);stroke-opacity:1;stroke-miterlimit:10;" d="M 100.554688 170.832031 L 77.878906 172.402344 "/>
<path style="fill:none;stroke-width:1.2;stroke-linecap:butt;stroke-linejoin:miter;stroke:rgb(0%,0%,0%);stroke-opacity:1;stroke-miterlimit:10;" d="M 77.878906 172.402344 L 72.890625 182.613281 "/>
<path style="fill:none;stroke-width:1.2;stroke-linecap:butt;stroke-linejoin:miter;stroke:rgb(0%,0%,100%);stroke-opacity:1;stroke-miterlimit:10;" d="M 72.890625 182.613281 L 67.902344 192.824219 "/>
<path style="fill:none;stroke-width:1.2;stroke-linecap:butt;stroke-linejoin:miter;stroke:rgb(0%,0%,100%);stroke-opacity:1;stroke-miterlimit:10;" d="M 67.902344 192.824219 L 56.566406 193.609375 "/>
<path style="fill:none;stroke-width:1.2;stroke-linecap:butt;stroke-linejoin:miter;stroke:rgb(0%,0%,0%);stroke-opacity:1;stroke-miterlimit:10;" d="M 56.566406 193.609375 L 45.226562 194.394531 "/>
<path style="fill:none;stroke-width:1.2;stroke-linecap:butt;stroke-linejoin:miter;stroke:rgb(0%,0%,0%);stroke-opacity:1;stroke-miterlimit:10;" d="M 80.601562 211.675781 L 74.25 202.25 "/>
<path style="fill:none;stroke-width:1.2;stroke-linecap:butt;stroke-linejoin:miter;stroke:rgb(0%,0%,100%);stroke-opacity:1;stroke-miterlimit:10;" d="M 74.25 202.25 L 67.902344 192.824219 "/>
<path style=" stroke:none;fill-rule:nonzero;fill:rgb(100%,100%,100%);fill-opacity:1;" d="M 64.902344 187.324219 L 71.902344 187.324219 L 71.902344 198.324219 L 64.902344 198.324219 Z M 64.902344 187.324219 "/>
<g style="fill:rgb(0%,0%,100%);fill-opacity:1;">
  <use xlink:href="#glyph0-1" x="64.902344" y="195.987305"/>
</g>
<path style="fill:none;stroke-width:1.2;stroke-linecap:butt;stroke-linejoin:miter;stroke:rgb(0%,0%,0%);stroke-opacity:1;stroke-miterlimit:10;" d="M 45.226562 194.394531 L 35.25 214.816406 "/>
<path style="fill:none;stroke-width:1.2;stroke-linecap:butt;stroke-linejoin:miter;stroke:rgb(0%,0%,0%);stroke-opacity:1;stroke-miterlimit:10;" d="M 35.25 214.816406 L 41.597656 224.242188 "/>
<path style="fill:none;stroke-width:1.2;stroke-linecap:butt;stroke-linejoin:miter;stroke:rgb(100%,0%,0%);stroke-opacity:1;stroke-miterlimit:10;" d="M 41.597656 224.242188 L 47.949219 233.667969 "/>
<path style="fill:none;stroke-width:1.2;stroke-linecap:butt;stroke-linejoin:miter;stroke:rgb(100%,0%,0%);stroke-opacity:1;stroke-miterlimit:10;" d="M 47.949219 233.667969 L 59.285156 232.882812 "/>
<path style="fill:none;stroke-width:1.2;stroke-linecap:butt;stroke-linejoin:miter;stroke:rgb(0%,0%,0%);stroke-opacity:1;stroke-miterlimit:10;" d="M 59.285156 232.882812 L 70.621094 232.097656 "/>
<path style=" stroke:none;fill-rule:nonzero;fill:rgb(100%,100%,100%);fill-opacity:1;" d="M 43.949219 228.167969 L 51.949219 228.167969 L 51.949219 239.167969 L 43.949219 239.167969 Z M 43.949219 228.167969 "/>
<g style="fill:rgb(100%,0%,0%);fill-opacity:1;">
  <use xlink:href="#glyph0-3" x="43.949219" y="236.831055"/>
</g>
<path style="fill:none;stroke-width:1.2;stroke-linecap:butt;stroke-linejoin:miter;stroke:rgb(0%,0%,0%);stroke-opacity:1;stroke-miterlimit:10;" d="M 70.621094 232.097656 L 80.601562 211.675781 "/>
<path style="fill:none;stroke-width:1.2;stroke-linecap:butt;stroke-linejoin:miter;stroke:rgb(0%,0%,0%);stroke-opacity:1;stroke-miterlimit:10;" d="M 136.765625 108.492188 L 150.769531 90.589844 "/>
<path style="fill:none;stroke-width:1.2;stroke-linecap:butt;stroke-linejoin:miter;stroke:rgb(0%,0%,0%);stroke-opacity:1;stroke-miterlimit:10;" d="M 133.953125 103.40625 L 145.15625 89.085938 "/>
<path style="fill:none;stroke-width:1.2;stroke-linecap:butt;stroke-linejoin:miter;stroke:rgb(0%,0%,0%);stroke-opacity:1;stroke-miterlimit:10;" d="M 114.257812 105.3125 L 136.765625 108.492188 "/>
<path style="fill:none;stroke-width:1.2;stroke-linecap:butt;stroke-linejoin:miter;stroke:rgb(0%,0%,0%);stroke-opacity:1;stroke-miterlimit:10;" d="M 150.769531 90.589844 L 142.269531 69.511719 "/>
<path style="fill:none;stroke-width:1.2;stroke-linecap:butt;stroke-linejoin:miter;stroke:rgb(0%,0%,0%);stroke-opacity:1;stroke-miterlimit:10;" d="M 142.269531 69.511719 L 119.765625 66.332031 "/>
<path style="fill:none;stroke-width:1.2;stroke-linecap:butt;stroke-linejoin:miter;stroke:rgb(0%,0%,0%);stroke-opacity:1;stroke-miterlimit:10;" d="M 139.273438 74.488281 L 121.265625 71.945312 "/>
<path style="fill:none;stroke-width:1.2;stroke-linecap:butt;stroke-linejoin:miter;stroke:rgb(0%,0%,0%);stroke-opacity:1;stroke-miterlimit:10;" d="M 119.765625 66.332031 L 105.757812 84.234375 "/>
<path style="fill:none;stroke-width:1.2;stroke-linecap:butt;stroke-linejoin:miter;stroke:rgb(0%,0%,0%);stroke-opacity:1;stroke-miterlimit:10;" d="M 105.757812 84.234375 L 114.257812 105.3125 "/>
<path style="fill:none;stroke-width:1.2;stroke-linecap:butt;stroke-linejoin:miter;stroke:rgb(0%,0%,0%);stroke-opacity:1;stroke-miterlimit:10;" d="M 111.570312 84.339844 L 118.367188 101.207031 "/>
</g>
</svg>

<svg xmlns="http://www.w3.org/2000/svg" xmlns:xlink="http://www.w3.org/1999/xlink" width="300pt" height="300pt" viewBox="0 0 300 300"><defs><symbol overflow="visible"><path d="M.453 1.594v-7.938h4.5v7.938zm.5-.5h3.5v-6.938h-3.5zm0 0"/></symbol><symbol overflow="visible" id="a"><path d="M.89-6.563H2.08l2.906 5.485v-5.484h.86V0H4.656L1.75-5.484V0H.89zm0 0"/></symbol><symbol overflow="visible" id="b"><path d="M.89-6.563h.876v2.688H5v-2.688h.89V0H5v-3.125H1.766V0H.89zm0 0"/></symbol><symbol overflow="visible" id="c"><path d="M3.547-5.953c-.65 0-1.164.242-1.547.72-.375.48-.563 1.13-.563 1.952 0 .835.188 1.49.563 1.967.383.48.898.72 1.547.72.644 0 1.156-.24 1.53-.72.376-.476.564-1.132.564-1.968 0-.822-.187-1.474-.562-1.954-.375-.477-.887-.72-1.53-.72zm0-.734c.914 0 1.648.312 2.203.937.55.617.828 1.438.828 2.47 0 1.042-.277 1.87-.828 2.483-.555.617-1.29.922-2.203.922-.93 0-1.668-.305-2.22-.922C.774-1.41.5-2.237.5-3.28c0-1.033.273-1.853.828-2.47.55-.625 1.29-.938 2.22-.938zm0 0"/></symbol></defs><g><path fill="#fff" d="M0 0h300v300H0z"/><path d="M159.352 225.277l3.175-22.504M162.527 202.773l-8.95-7.003" stroke-width="1.2" stroke="#000" stroke-miterlimit="10" fill="none"/><path d="M153.578 195.77l-8.95-7.004" stroke-width="1.2" stroke="#00f" stroke-miterlimit="10" fill="none"/><path d="M164.035 197.16l-7.16-5.6" stroke-width="1.2" stroke="#000" stroke-miterlimit="10" fill="none"/><path d="M156.875 191.56l-7.16-5.607M183.61 194.27l-10.54 4.253" stroke-width="1.2" stroke="#00f" stroke-miterlimit="10" fill="none"/><path d="M173.07 198.523l-10.543 4.25" stroke-width="1.2" stroke="#000" stroke-miterlimit="10" fill="none"/><path d="M144.63 188.766l1.585-11.254" stroke-width="1.2" stroke="#00f" stroke-miterlimit="10" fill="none"/><path d="M146.215 177.512l1.59-11.25" stroke-width="1.2" stroke="#000" stroke-miterlimit="10" fill="none"/><path d="M141.63 183.266h7v11h-7zm0 0" fill="#fff"/><use xlink:href="#a" x="141.629" y="191.929" fill="#00f"/><path d="M147.805 166.262l21.082-8.5M147.914 160.45l16.863-6.802" stroke-width="1.2" stroke="#000" stroke-miterlimit="10" fill="none"/><path d="M133.207 148.84l7.3 8.71" stroke-width="1.2" stroke="#00f" stroke-miterlimit="10" fill="none"/><path d="M140.508 157.55l7.297 8.712M168.887 157.762l17.902 14.004M168.887 157.762l-.785-11.34" stroke-width="1.2" stroke="#000" stroke-miterlimit="10" fill="none"/><path d="M168.102 146.422l-.786-11.336" stroke-width="1.2" stroke="#00f" stroke-miterlimit="10" fill="none"/><path d="M186.79 171.766l-1.59 11.254" stroke-width="1.2" stroke="#000" stroke-miterlimit="10" fill="none"/><path d="M185.2 183.02l-1.59 11.25" stroke-width="1.2" stroke="#00f" stroke-miterlimit="10" fill="none"/><path d="M181.176 173.27l-1.274 9" stroke-width="1.2" stroke="#000" stroke-miterlimit="10" fill="none"/><path d="M179.902 182.27l-1.27 9.003" stroke-width="1.2" stroke="#00f" stroke-miterlimit="10" fill="none"/><path d="M186.79 171.766l10.538-4.25" stroke-width="1.2" stroke="#000" stroke-miterlimit="10" fill="none"/><path d="M197.328 167.516l10.54-4.25" stroke-width="1.2" stroke="#00f" stroke-miterlimit="10" fill="none"/><path d="M180.61 188.77h7v11h-7zm0 0" fill="#fff"/><use xlink:href="#a" x="180.609" y="197.433" fill="#00f"/><path d="M207.867 163.266l8.95 7.004" stroke-width="1.2" stroke="#00f" stroke-miterlimit="10" fill="none"/><path d="M216.816 170.27l8.954 7" stroke-width="1.2" stroke="#000" stroke-miterlimit="10" fill="none"/><path d="M200.867 157.766h14v11h-14zm0 0" fill="#fff"/><g fill="#00f"><use xlink:href="#a" x="200.867" y="166.429"/><use xlink:href="#b" x="207.845" y="166.429"/></g><path d="M225.77 177.27l-3.18 22.507M246.848 168.77l-21.078 8.5M222.59 199.777l17.902 14.004M240.492 213.78l21.078-8.5M261.57 205.28l3.18-22.503M264.75 182.777l-17.902-14.007" stroke-width="1.2" stroke="#000" stroke-miterlimit="10" fill="none"/><path d="M167.316 135.086l-11.027-2.758" stroke-width="1.2" stroke="#00f" stroke-miterlimit="10" fill="none"/><path d="M156.29 132.328l-11.024-2.758" stroke-width="1.2" stroke="#000" stroke-miterlimit="10" fill="none"/><path d="M163.813 139.723l-8.82-2.207" stroke-width="1.2" stroke="#00f" stroke-miterlimit="10" fill="none"/><path d="M154.992 137.516l-8.82-2.203" stroke-width="1.2" stroke="#000" stroke-miterlimit="10" fill="none"/><path d="M164.316 129.586h7v11h-7zm0 0" fill="#fff"/><use xlink:href="#a" x="164.316" y="138.249" fill="#00f"/><path d="M145.266 129.57l-6.032 9.637" stroke-width="1.2" stroke="#000" stroke-miterlimit="10" fill="none"/><path d="M139.234 139.207l-6.027 9.633" stroke-width="1.2" stroke="#00f" stroke-miterlimit="10" fill="none"/><path d="M145.266 129.57l-8.5-21.078" stroke-width="1.2" stroke="#000" stroke-miterlimit="10" fill="none"/><path d="M133.207 148.84l-11.336.785" stroke-width="1.2" stroke="#00f" stroke-miterlimit="10" fill="none"/><path d="M121.87 149.625l-11.34.785" stroke-width="1.2" stroke="#000" stroke-miterlimit="10" fill="none"/><path d="M130.207 143.34h7v11h-7zm0 0" fill="#fff"/><use xlink:href="#a" x="130.207" y="152.003" fill="#00f"/><path d="M110.53 150.41l-9.975 20.422M100.555 170.832l-22.676 1.57M77.88 172.402l-4.99 10.21" stroke-width="1.2" stroke="#000" stroke-miterlimit="10" fill="none"/><path d="M72.89 182.613l-4.988 10.21M67.902 192.824l-11.336.785" stroke-width="1.2" stroke="#00f" stroke-miterlimit="10" fill="none"/><path d="M56.566 193.61l-11.34.785M80.602 211.676l-6.352-9.426" stroke-width="1.2" stroke="#000" stroke-miterlimit="10" fill="none"/><path d="M74.25 202.25l-6.348-9.426" stroke-width="1.2" stroke="#00f" stroke-miterlimit="10" fill="none"/><path d="M64.902 187.324h7v11h-7zm0 0" fill="#fff"/><use xlink:href="#a" x="64.902" y="195.987" fill="#00f"/><path d="M45.227 194.395l-9.977 20.42M35.25 214.816l6.348 9.426" stroke-width="1.2" stroke="#000" stroke-miterlimit="10" fill="none"/><path d="M41.598 224.242l6.35 9.426M47.95 233.668l11.335-.785" stroke-width="1.2" stroke="#f00" stroke-miterlimit="10" fill="none"/><path d="M59.285 232.883l11.336-.785" stroke-width="1.2" stroke="#000" stroke-miterlimit="10" fill="none"/><path d="M43.95 228.168h8v11h-8zm0 0" fill="#fff"/><use xlink:href="#c" x="43.949" y="236.831" fill="#f00"/><path d="M70.62 232.098l9.982-20.422M136.766 108.492L150.77 90.59M133.953 103.406l11.203-14.32M114.258 105.313l22.508 3.18M150.77 90.59l-8.5-21.078M142.27 69.512l-22.504-3.18M139.273 74.488l-18.007-2.543M119.766 66.332l-14.008 17.902M105.758 84.234l8.5 21.08M111.57 84.34l6.797 16.867" stroke-width="1.2" stroke="#000" stroke-miterlimit="10" fill="none"/></g></svg>
